X:1
T:Evergreen, Holly and Laurel
T:Evergreen, Holly and Laurel
T:John Henry Hopkins, Jr.
T:John Henry Hopkins, Jr., 1863
T:Public Domain Courtesy of the Cyber Hymnal™
T:Public Domain Courtesy of the Cyber Hymnal™
C:John Henry Hopkins, Jr.
Z:Public Domain
Z:Courtesy of the Cyber Hymnal™
%%score ( 1 2 ) ( 3 4 )
L:1/8
Q:1/4=108
M:4/4
K:C
V:1 treble 
V:2 treble 
V:3 bass 
V:4 bass 
V:1
 [DG]2"^Soli" [FA][FB] [Gc]2 [EG]2 | [FA]2 [FB]2 [Ec]2 ||"^Chorus" [DA]2 | [Cc]2 (BA) [EG]2 [CA]2 | %4
w: 1.~Hail to the morn when|Christ is born!|Ho-|san- na * in the|
w: 2.~Ce- dar and pine now|cheer- ily twine:|Ho-|san- na * in the|
w: 3.~Boughs of the hol- ly~this|day ad- orn:|Ho-|san- na * in the|
w: 4.~Laur- el and bay bring|forth to- day:|Ho-|san- na * in the|
 [EB]4 !fermata!E4 ||"^Soli" [EG]2 [FA][FB] [Gc]2 [EG]2 | [FA]2 [FB]2 [Ec]2 ||"^Refrain" [DA]2 | %8
w: high- est!|An- gels on high sing|thro’ the sky!|Ho-|
w: high- est!|Crown ev- ery scene with|ev- er- green:|Ho-|
w: high- est!|Sharp are the leaves as|crowns of thorn:|Ho-|
w: high- est!|Match- less His might in|dead- ly fight:|Ho-|
 [Cc]2 (BA) [EG]2 [CA]2 | [EB]4 !fermata![^CA]4 ||"^Soli" [CA]2 [DG][DF] [CE]2 [A,D]2 | %11
w: san- na * in the|high- est!|Shep- herds a- dore the|
w: san- na * in the|high- est!|Now is the reign of|
w: san- na * in the|high- est!|See, in the ber- ries|
w: san- na * in the|high- est!|Hail to the Child Im-|
 [A,C]2 [A,D]2 [B,E]4 | [Ec]2 [FB][FA] [EG]2 [CF]2 | [CE]2 [CF]2 [DG]4 | [FA]2 [FA]2 [EA]2 (GA) | %15
w: Lamb to- day:|Kings from the east are|on their way;|Sing then all in *|
w: dark- ness o’er:|Je- su is King for|ev- er- more!|Sing then all in *|
w: all blood- red,|Blood that, for us, this|Babe shall shed:|Sing then all in *|
w: man- u- el!|Con- queror is He of|death and hell!|Sing then all in *|
 [FB]2 (AB) [Gc]2 ||"^Refrain" [Ge]2 | [Gd]4 [^Fd]4- | [Fd]4 [=FA]2 [FB]2 | [Ec]3 G [FA]2 [FB]2 | %20
w: house and * hall:|||||
w: house and * hall:|Ho-|san- na!|* Christ is|born on Christ- mas|
w: house and * hall:|||||
w: house and * hall:|||||
 [Ec]4 [Gd]4 | [Ge]4- [Ge][Gd][GB][Gc] | [^Fd]8 | G4 z4 |] %24
w: ||||
w: morn, Ho-|san- * na in the|high-|est!|
w: ||||
w: ||||
V:2
 x8 | x6 || x2 | x2 F2 x4 | x4 E4 || x8 | x6 || x2 | x2 F2 x4 | x8 || x8 | x8 | x8 | x8 | x6 E2 | %15
 x2 F2 x2 || x2 | x8 | x8 | x3 G x4 | x8 | x8 | x8 | G4 x4 |] %24
V:3
 [G,B,]2 [F,C][F,D] [E,C]2 [C,C]2 | [F,C]2 [D,F,]2 [C,G,]2 || [D,F,]2 | %3
 [A,,E,]2 [B,,D,]2 [C,E,]2 [F,A,]2 | [E,^G,]4 !fermata![E,G,]4 || %5
 [C,G,]2 [F,C][F,D] [E,C]2 [C,C]2 | [F,C]2 [D,F,]2 [C,G,]2 || [D,F,]2 | %8
 [A,,E,]2 [B,,D,]2 [C,E,]2 [F,A,]2 | [E,^G,]4 !fermata![A,,A,]4 || %10
 [A,,E,]2 [B,,D,][B,,D,] [C,E,]2 [D,F,]2 | [F,A,]2 [F,A,]2 [E,^G,]4 | %12
 [C,G,]2 [D,F,][D,F,] [E,G,]2 [F,A,]2 | [A,C]2 [A,C]2 [G,B,]4 | [F,C]2 [D,D]2 [A,,^C]2 (B,=C) | %15
 [D,D]2 [F,C]2 [E,C]2 || [C,C]2 | [G,B,]4 [D,A,]4- | [D,A,]4 [F,A,]2 [D,F,]2 | %19
 [C,G,]3 [E,C] [F,C]2 [D,F,]2 | [C,G,]4 [G,B,]4 | C4- C[B,D][G,D][E,G,] | [D,A,]8 | [G,B,]4 z4 |] %24
V:4
 x8 | x6 || x2 | x8 | x8 || x8 | x6 || x2 | x8 | x8 || x8 | x8 | x8 | x8 | x6 E,2 | x6 || x2 | x8 | %18
 x8 | x8 | x8 | C4- C x3 | x8 | x8 |] %24

